badges/fountain-dark.svg

<svg width="118" height="40" viewBox="0 0 118 40" fill="none" xmlns="http://www.w3.org/2000/svg">
<rect x="0.5" y="0.5" width="117" height="39" rx="4.5" fill="black"/>
<path d="M10.5247 29.4753C8.68315 27.6337 8 24.6337 8 20C8 15.3663 8.68315 12.3662 10.5247 10.5247C12.3662 8.68315 15.3663 8 20 8C24.6337 8 27.6337 8.68315 29.4753 10.5247C31.3168 12.3662 32 15.3663 32 20C32 24.6337 31.3168 27.6337 29.4753 29.4753C27.6337 31.3168 24.6337 32 20 32C15.3663 32 12.3662 31.3168 10.5247 29.4753Z" fill="black"/>
<path d="M22.9766 10.625C24.425 11.0188 25.3953 12.1109 25.3953 13.3484C25.3953 13.9438 25.1469 14.4406 24.6032 14.9422C23.7641 15.7063 22.7235 16.0813 21.7391 15.9688C21.2797 15.9172 21.1063 15.8703 20.5532 15.6594C20.15 15.5 20.0891 15.4906 19.7188 15.5094C19.0438 15.5422 18.6688 15.8234 18.3172 16.5594C18.1953 16.8172 18.1203 16.9109 17.9891 16.9813C17.4922 17.2484 16.6953 17.9328 16.3203 18.425C16.1938 18.5891 16.0719 18.7297 16.0578 18.7297C15.9922 18.7391 15.9641 17.3844 16.0157 16.7891C16.1844 14.8391 16.8313 13.325 18.0078 12.1437C18.8375 11.3094 19.7938 10.7797 20.8907 10.55C21.3594 10.4516 22.4985 10.4938 22.9766 10.625ZM22.2922 17.1172C23.8063 17.3656 24.7766 18.1297 25.086 19.3203C25.2547 19.9766 25.1 20.6047 24.6313 21.1625C24.125 21.7625 23.3469 22.2125 22.4375 22.4234C21.9782 22.5266 21.7907 22.5453 21.1953 22.5453C20.4594 22.5406 20.0891 22.475 19.3813 22.2078C19.086 22.1 18.6828 22.0812 18.3969 22.1562C17.8203 22.3203 17.2672 23.0422 16.911 24.1062C16.7235 24.6641 16.6344 25.2031 16.5688 26.1781C16.4797 27.4953 16.6063 28.4562 16.9766 29.2812C17.1688 29.7031 17.1735 29.7875 17.0422 29.9562C16.9719 30.0453 16.9063 30.0781 16.775 30.0781C16.2125 30.0781 15.411 28.3437 15.0782 26.4125C14.7922 24.725 14.8719 23.0187 15.2985 21.5938C16.0344 19.1281 17.8766 17.4359 20.1735 17.0984C20.6375 17.0281 21.8141 17.0422 22.2922 17.1172Z" fill="url(#paint0_radial_101_7996)"/>
<path d="M39.7486 14.5V8.31818H40.4972V13.8359H43.3707V14.5H39.7486ZM44.4332 14.5V9.86364H45.1456V14.5H44.4332ZM44.7955 9.09091C44.6566 9.09091 44.5369 9.04362 44.4363 8.94904C44.3377 8.85446 44.2884 8.74077 44.2884 8.60795C44.2884 8.47514 44.3377 8.36145 44.4363 8.26687C44.5369 8.17229 44.6566 8.125 44.7955 8.125C44.9343 8.125 45.053 8.17229 45.1516 8.26687C45.2522 8.36145 45.3026 8.47514 45.3026 8.60795C45.3026 8.74077 45.2522 8.85446 45.1516 8.94904C45.053 9.04362 44.9343 9.09091 44.7955 9.09091ZM49.7344 10.902L49.0945 11.0831C49.0543 10.9764 48.9949 10.8728 48.9164 10.7722C48.8399 10.6696 48.7353 10.585 48.6025 10.5186C48.4697 10.4522 48.2996 10.419 48.0924 10.419C47.8086 10.419 47.5722 10.4844 47.383 10.6152C47.1959 10.744 47.1023 10.908 47.1023 11.1072C47.1023 11.2843 47.1667 11.4242 47.2955 11.5268C47.4243 11.6294 47.6255 11.715 47.8992 11.7834L48.5874 11.9524C49.0019 12.053 49.3108 12.207 49.5141 12.4142C49.7173 12.6195 49.8189 12.8841 49.8189 13.2081C49.8189 13.4737 49.7425 13.7112 49.5895 13.9205C49.4386 14.1297 49.2273 14.2947 48.9557 14.4155C48.684 14.5362 48.3681 14.5966 48.0079 14.5966C47.535 14.5966 47.1436 14.494 46.8337 14.2887C46.5238 14.0835 46.3276 13.7836 46.2451 13.3892L46.9212 13.2202C46.9856 13.4697 47.1073 13.6568 47.2864 13.7816C47.4676 13.9064 47.704 13.9688 47.9958 13.9688C48.3278 13.9688 48.5914 13.8983 48.7866 13.7575C48.9838 13.6146 49.0824 13.4435 49.0824 13.2443C49.0824 13.0833 49.0261 12.9485 48.9134 12.8398C48.8007 12.7292 48.6276 12.6467 48.3942 12.5923L47.6215 12.4112C47.1969 12.3106 46.885 12.1547 46.6858 11.9434C46.4886 11.7301 46.39 11.4634 46.39 11.1435C46.39 10.8819 46.4634 10.6504 46.6103 10.4492C46.7592 10.248 46.9615 10.09 47.217 9.97532C47.4746 9.86062 47.7664 9.80327 48.0924 9.80327C48.5512 9.80327 48.9114 9.90388 49.173 10.1051C49.4366 10.3063 49.6237 10.572 49.7344 10.902ZM52.9076 9.86364V10.4673H50.5049V9.86364H52.9076ZM51.2052 8.75284H51.9175V13.1719C51.9175 13.3731 51.9467 13.524 52.0051 13.6246C52.0654 13.7232 52.1419 13.7897 52.2345 13.8239C52.329 13.8561 52.4287 13.8722 52.5333 13.8722C52.6118 13.8722 52.6762 13.8681 52.7265 13.8601C52.7768 13.85 52.817 13.842 52.8472 13.8359L52.9921 14.4759C52.9438 14.494 52.8764 14.5121 52.7899 14.5302C52.7033 14.5503 52.5937 14.5604 52.4608 14.5604C52.2596 14.5604 52.0624 14.5171 51.8692 14.4306C51.6781 14.344 51.5191 14.2122 51.3923 14.0352C51.2675 13.8581 51.2052 13.6347 51.2052 13.3651V8.75284ZM55.8732 14.5966C55.4265 14.5966 55.0411 14.498 54.7172 14.3008C54.3952 14.1016 54.1467 13.8239 53.9716 13.4677C53.7985 13.1095 53.712 12.6929 53.712 12.218C53.712 11.7431 53.7985 11.3246 53.9716 10.9624C54.1467 10.5981 54.3902 10.3144 54.7021 10.1112C55.016 9.90589 55.3822 9.80327 55.8008 9.80327C56.0423 9.80327 56.2807 9.84351 56.5162 9.92401C56.7516 10.0045 56.9659 10.1353 57.1591 10.3164C57.3523 10.4955 57.5062 10.733 57.6209 11.0288C57.7356 11.3246 57.793 11.6888 57.793 12.1214V12.4233H54.2191V11.8075H57.0685C57.0685 11.5459 57.0162 11.3125 56.9116 11.1072C56.8089 10.902 56.6621 10.74 56.4709 10.6213C56.2817 10.5025 56.0584 10.4432 55.8008 10.4432C55.517 10.4432 55.2715 10.5136 55.0643 10.6545C54.859 10.7933 54.7011 10.9744 54.5904 11.1978C54.4797 11.4212 54.4244 11.6606 54.4244 11.9162V12.3267C54.4244 12.6768 54.4847 12.9737 54.6055 13.2172C54.7282 13.4586 54.8983 13.6428 55.1156 13.7695C55.3329 13.8943 55.5855 13.9567 55.8732 13.9567C56.0604 13.9567 56.2294 13.9305 56.3803 13.8782C56.5333 13.8239 56.6651 13.7434 56.7757 13.6367C56.8864 13.5281 56.9719 13.3932 57.0323 13.2322L57.7205 13.4254C57.6481 13.6589 57.5263 13.8641 57.3553 14.0412C57.1842 14.2163 56.973 14.3531 56.7214 14.4517C56.4699 14.5483 56.1871 14.5966 55.8732 14.5966ZM59.589 11.7109V14.5H58.8766V9.86364H59.5648V10.5881H59.6252C59.7338 10.3526 59.8989 10.1635 60.1202 10.0206C60.3416 9.87571 60.6273 9.80327 60.9775 9.80327C61.2914 9.80327 61.5661 9.86766 61.8015 9.99645C62.0369 10.1232 62.2201 10.3164 62.3509 10.576C62.4817 10.8336 62.5471 11.1596 62.5471 11.554V14.5H61.8347V11.6023C61.8347 11.238 61.7401 10.9543 61.551 10.7511C61.3618 10.5458 61.1022 10.4432 60.7722 10.4432C60.5448 10.4432 60.3416 10.4925 60.1625 10.5911C59.9854 10.6897 59.8455 10.8336 59.7429 11.0227C59.6403 11.2119 59.589 11.4413 59.589 11.7109ZM68.1229 14.5966C67.7044 14.5966 67.3371 14.497 67.0212 14.2978C66.7073 14.0985 66.4618 13.8198 66.2847 13.4616C66.1096 13.1035 66.0221 12.6849 66.0221 12.206C66.0221 11.723 66.1096 11.3014 66.2847 10.9412C66.4618 10.581 66.7073 10.3013 67.0212 10.1021C67.3371 9.90288 67.7044 9.80327 68.1229 9.80327C68.5415 9.80327 68.9077 9.90288 69.2216 10.1021C69.5376 10.3013 69.7831 10.581 69.9581 10.9412C70.1352 11.3014 70.2238 11.723 70.2238 12.206C70.2238 12.6849 70.1352 13.1035 69.9581 13.4616C69.7831 13.8198 69.5376 14.0985 69.2216 14.2978C68.9077 14.497 68.5415 14.5966 68.1229 14.5966ZM68.1229 13.9567C68.4409 13.9567 68.7025 13.8752 68.9077 13.7122C69.113 13.5492 69.2649 13.3349 69.3635 13.0692C69.4621 12.8036 69.5114 12.5159 69.5114 12.206C69.5114 11.8961 69.4621 11.6073 69.3635 11.3397C69.2649 11.072 69.113 10.8557 68.9077 10.6907C68.7025 10.5257 68.4409 10.4432 68.1229 10.4432C67.805 10.4432 67.5434 10.5257 67.3381 10.6907C67.1329 10.8557 66.9809 11.072 66.8823 11.3397C66.7837 11.6073 66.7344 11.8961 66.7344 12.206C66.7344 12.5159 66.7837 12.8036 66.8823 13.0692C66.9809 13.3349 67.1329 13.5492 67.3381 13.7122C67.5434 13.8752 67.805 13.9567 68.1229 13.9567ZM72.0235 11.7109V14.5H71.3112V9.86364H71.9994V10.5881H72.0597C72.1684 10.3526 72.3334 10.1635 72.5548 10.0206C72.7761 9.87571 73.0619 9.80327 73.412 9.80327C73.7259 9.80327 74.0006 9.86766 74.2361 9.99645C74.4715 10.1232 74.6546 10.3164 74.7854 10.576C74.9162 10.8336 74.9816 11.1596 74.9816 11.554V14.5H74.2693V11.6023C74.2693 11.238 74.1747 10.9543 73.9855 10.7511C73.7964 10.5458 73.5368 10.4432 73.2068 10.4432C72.9794 10.4432 72.7761 10.4925 72.597 10.5911C72.42 10.6897 72.2801 10.8336 72.1775 11.0227C72.0748 11.2119 72.0235 11.4413 72.0235 11.7109Z" fill="white"/>
<path d="M39.5412 30.5V17.7727H47.1726V19.1399H41.0824V23.4403H46.6009V24.8075H41.0824V30.5H39.5412ZM52.5405 30.6989C51.6787 30.6989 50.9226 30.4938 50.2722 30.0836C49.6259 29.6735 49.1204 29.0997 48.7559 28.3622C48.3954 27.6248 48.2152 26.763 48.2152 25.777C48.2152 24.7827 48.3954 23.9147 48.7559 23.1731C49.1204 22.4315 49.6259 21.8556 50.2722 21.4455C50.9226 21.0353 51.6787 20.8303 52.5405 20.8303C53.4022 20.8303 54.1563 21.0353 54.8026 21.4455C55.453 21.8556 55.9585 22.4315 56.3189 23.1731C56.6835 23.9147 56.8658 24.7827 56.8658 25.777C56.8658 26.763 56.6835 27.6248 56.3189 28.3622C55.9585 29.0997 55.453 29.6735 54.8026 30.0836C54.1563 30.4938 53.4022 30.6989 52.5405 30.6989ZM52.5405 29.3814C53.1951 29.3814 53.7337 29.2136 54.1562 28.878C54.5788 28.5424 54.8916 28.1012 55.0946 27.5543C55.2976 27.0075 55.3991 26.415 55.3991 25.777C55.3991 25.139 55.2976 24.5444 55.0946 23.9934C54.8916 23.4424 54.5788 22.997 54.1562 22.6573C53.7337 22.3176 53.1951 22.1477 52.5405 22.1477C51.8859 22.1477 51.3473 22.3176 50.9247 22.6573C50.5021 22.997 50.1893 23.4424 49.9863 23.9934C49.7833 24.5444 49.6818 25.139 49.6818 25.777C49.6818 26.415 49.7833 27.0075 49.9863 27.5543C50.1893 28.1012 50.5021 28.5424 50.9247 28.878C51.3473 29.2136 51.8859 29.3814 52.5405 29.3814ZM64.8702 26.5973V20.9545H66.3368V30.5H64.8702V28.8842H64.7707C64.547 29.369 64.199 29.7812 63.7267 30.1209C63.2544 30.4565 62.6578 30.6243 61.9369 30.6243C61.3403 30.6243 60.81 30.4938 60.346 30.2328C59.882 29.9676 59.5174 29.5699 59.2523 29.0396C58.9871 28.5051 58.8545 27.8319 58.8545 27.0199V20.9545H60.3212V26.9205C60.3212 27.6165 60.5159 28.1716 60.9053 28.5859C61.2989 29.0002 61.8002 29.2074 62.4092 29.2074C62.7738 29.2074 63.1446 29.1142 63.5216 28.9277C63.9028 28.7413 64.2218 28.4554 64.4786 28.0701C64.7397 27.6848 64.8702 27.1939 64.8702 26.5973ZM70.2396 24.7578V30.5H68.773V20.9545H70.1899V22.446H70.3142C70.5379 21.9613 70.8776 21.5719 71.3334 21.2777C71.7891 20.9794 72.3774 20.8303 73.0983 20.8303C73.7446 20.8303 74.3101 20.9628 74.7948 21.228C75.2796 21.489 75.6566 21.8867 75.9259 22.4212C76.1952 22.9515 76.3298 23.6226 76.3298 24.4347V30.5H74.8632V24.5341C74.8632 23.7842 74.6685 23.2 74.279 22.7816C73.8896 22.359 73.3551 22.1477 72.6757 22.1477C72.2075 22.1477 71.7891 22.2492 71.4204 22.4522C71.0558 22.6552 70.7678 22.9515 70.5566 23.3409C70.3453 23.7303 70.2396 24.2027 70.2396 24.7578ZM82.9111 20.9545V22.1974H77.9644V20.9545H82.9111ZM79.4061 18.6676H80.8727V27.7656C80.8727 28.1799 80.9328 28.4906 81.053 28.6978C81.1772 28.9008 81.3347 29.0375 81.5253 29.108C81.72 29.1742 81.9251 29.2074 82.1405 29.2074C82.3021 29.2074 82.4346 29.1991 82.5382 29.1825C82.6418 29.1618 82.7247 29.1452 82.7868 29.1328L83.0851 30.4503C82.9857 30.4876 82.8469 30.5249 82.6687 30.5621C82.4906 30.6036 82.2648 30.6243 81.9913 30.6243C81.577 30.6243 81.171 30.5352 80.7733 30.3571C80.3797 30.1789 80.0524 29.9076 79.7914 29.543C79.5345 29.1784 79.4061 28.7185 79.4061 28.1634V18.6676ZM87.6762 30.7237C87.0713 30.7237 86.5224 30.6098 86.0293 30.3819C85.5363 30.1499 85.1448 29.8164 84.8548 29.3814C84.5648 28.9422 84.4198 28.4119 84.4198 27.7905C84.4198 27.2436 84.5275 26.8003 84.7429 26.4606C84.9584 26.1167 85.2463 25.8474 85.6068 25.6527C85.9672 25.458 86.3649 25.313 86.7999 25.2177C87.2391 25.1183 87.6803 25.0395 88.1236 24.9815C88.7036 24.907 89.1739 24.851 89.5343 24.8137C89.8989 24.7723 90.164 24.704 90.3298 24.6087C90.4996 24.5134 90.5846 24.3477 90.5846 24.1115V24.0618C90.5846 23.4486 90.4168 22.9722 90.0812 22.6325C89.7497 22.2927 89.2464 22.1229 88.5711 22.1229C87.8709 22.1229 87.322 22.2762 86.9242 22.5827C86.5265 22.8893 86.2468 23.2166 86.0853 23.5646L84.6932 23.0675C84.9418 22.4875 85.2732 22.0359 85.6875 21.7127C86.106 21.3854 86.5617 21.1576 87.0547 21.0291C87.5519 20.8965 88.0408 20.8303 88.5214 20.8303C88.8279 20.8303 89.1801 20.8675 89.5778 20.9421C89.9797 21.0125 90.3671 21.1596 90.7399 21.3833C91.1169 21.6071 91.4297 21.9447 91.6783 22.3963C91.9269 22.8479 92.0512 23.4528 92.0512 24.2109V30.5H90.5846V29.2074H90.51C90.4106 29.4145 90.2448 29.6362 90.0128 29.8723C89.7808 30.1085 89.4722 30.3094 89.0869 30.4751C88.7016 30.6409 88.2313 30.7237 87.6762 30.7237ZM87.8999 29.4062C88.4799 29.4062 88.9688 29.2923 89.3665 29.0645C89.7684 28.8366 90.0708 28.5424 90.2738 28.182C90.481 27.8216 90.5846 27.4425 90.5846 27.0447V25.7024C90.5224 25.777 90.3857 25.8453 90.1744 25.9075C89.9673 25.9655 89.727 26.0173 89.4535 26.0629C89.1842 26.1043 88.9212 26.1416 88.6643 26.1747C88.4116 26.2037 88.2065 26.2286 88.0491 26.2493C87.6679 26.299 87.3116 26.3798 86.9802 26.4917C86.6529 26.5994 86.3877 26.763 86.1847 26.9826C85.9858 27.198 85.8864 27.4922 85.8864 27.8651C85.8864 28.3746 86.0749 28.7599 86.4519 29.021C86.8331 29.2778 87.3157 29.4062 87.8999 29.4062ZM94.4781 30.5V20.9545H95.9447V30.5H94.4781ZM95.2238 19.3636C94.9379 19.3636 94.6914 19.2663 94.4843 19.0716C94.2813 18.8768 94.1798 18.6428 94.1798 18.3693C94.1798 18.0959 94.2813 17.8618 94.4843 17.6671C94.6914 17.4724 94.9379 17.375 95.2238 17.375C95.5097 17.375 95.7541 17.4724 95.9571 17.6671C96.1643 17.8618 96.2678 18.0959 96.2678 18.3693C96.2678 18.6428 96.1643 18.8768 95.9571 19.0716C95.7541 19.2663 95.5097 19.3636 95.2238 19.3636ZM99.8475 24.7578V30.5H98.3809V20.9545H99.7978V22.446H99.9221C100.146 21.9613 100.486 21.5719 100.941 21.2777C101.397 20.9794 101.985 20.8303 102.706 20.8303C103.352 20.8303 103.918 20.9628 104.403 21.228C104.887 21.489 105.264 21.8867 105.534 22.4212C105.803 22.9515 105.938 23.6226 105.938 24.4347V30.5H104.471V24.5341C104.471 23.7842 104.276 23.2 103.887 22.7816C103.497 22.359 102.963 22.1477 102.284 22.1477C101.815 22.1477 101.397 22.2492 101.028 22.4522C100.664 22.6552 100.376 22.9515 100.164 23.3409C99.9532 23.7303 99.8475 24.2027 99.8475 24.7578Z" fill="white"/>
<rect x="0.5" y="0.5" width="117" height="39" rx="4.5" stroke="#A6A6A6"/>
<defs>
<radialGradient id="paint0_radial_101_7996" cx="0" cy="0" r="1" gradientUnits="userSpaceOnUse" gradientTransform="translate(14.9093 15.5952) rotate(72.6765) scale(15.4126 11.333)">
<stop stop-color="#FAA165"/>
<stop offset="1" stop-color="#FCD59B"/>
</radialGradient>
</defs>
</svg>

<svg xmlns="http://www.w3.org/2000/svg" width="118" height="40" fill="none" viewBox="0 0 118 40">
  <rect width="117" height="39" x=".5" y=".5" fill="#000" rx="4.5"/>
  <rect width="117" height="39" x=".5" y=".5" stroke="#A6A6A6" rx="4.5"/>
  <path fill="#FA9F23" d="M18.65 32a.442.442 0 0 0 .304-.133.434.434 0 0 0-.03-.65A6.142 6.142 0 0 1 16.55 26.4c0-1.829.753-3.653 2.333-3.653 1.075 0 1.327.857 2.951.857a3.528 3.528 0 0 0 3.531-3.525c0-1.24-.945-3.536-3.58-3.536-2.634 0-7.149 3.123-7.149 8.332 0 4.6 3.59 7.125 4.013 7.125Z"/>
  <path fill="url(#a)" d="M25.366 11.536a3.528 3.528 0 0 1-3.53 3.525c-.774 0-1.236-.194-1.624-.398-.427-.224-.764-.46-1.328-.46-1.193 0-1.915 1.041-2.197 2.339a8.941 8.941 0 0 0-1.727 2.112 8.432 8.432 0 0 1-.322-2.322c0-5.209 4.56-8.332 7.149-8.332 2.588 0 3.58 2.297 3.58 3.536Z"/>
  <path fill="#fff" d="M39.749 14.5V8.318h.748v5.518h2.874v.664h-3.622Zm4.684 0V9.864h.713V14.5h-.713Zm.362-5.41a.506.506 0 0 1-.359-.141.456.456 0 0 1-.148-.341c0-.133.05-.247.148-.341.1-.095.22-.142.36-.142.138 0 .257.047.356.142.1.094.15.208.15.341 0 .133-.05.246-.15.341a.496.496 0 0 1-.357.142Zm4.94 1.812-.64.181c-.04-.107-.1-.21-.179-.31a.865.865 0 0 0-.313-.254 1.14 1.14 0 0 0-.51-.1c-.284 0-.52.065-.71.196-.187.129-.28.293-.28.492a.51.51 0 0 0 .192.42c.13.102.33.188.604.256l.688.17c.415.1.724.254.927.461.203.206.305.47.305.794 0 .266-.077.503-.23.713-.15.209-.362.374-.633.495a2.33 2.33 0 0 1-.948.18c-.473 0-.864-.102-1.174-.307-.31-.205-.506-.505-.589-.9l.676-.169c.065.25.186.437.365.562.182.124.418.187.71.187.332 0 .595-.07.79-.211.198-.143.296-.314.296-.514a.54.54 0 0 0-.169-.404c-.112-.11-.285-.193-.519-.248l-.773-.18c-.424-.101-.736-.257-.935-.469a1.133 1.133 0 0 1-.296-.8c0-.261.073-.493.22-.694a1.5 1.5 0 0 1 .607-.474 2.13 2.13 0 0 1 .875-.172c.46 0 .82.1 1.081.302.264.201.45.467.561.797Zm3.173-1.038v.603h-2.403v-.603h2.403Zm-1.703-1.111h.712v4.419c0 .201.03.352.088.453.06.098.137.165.23.199a.92.92 0 0 0 .298.048c.079 0 .143-.004.194-.012l.12-.024.145.64a1.491 1.491 0 0 1-.531.085c-.201 0-.399-.044-.592-.13a1.177 1.177 0 0 1-.477-.396c-.125-.177-.187-.4-.187-.67V8.753Zm4.668 5.844c-.447 0-.832-.099-1.156-.296a1.99 1.99 0 0 1-.745-.833c-.174-.358-.26-.775-.26-1.25s.086-.893.26-1.256c.175-.364.418-.648.73-.85.314-.206.68-.309 1.099-.309.241 0 .48.04.715.121.236.08.45.211.643.392.193.18.347.417.462.713.115.296.172.66.172 1.092v.302h-3.574v-.616h2.85a1.52 1.52 0 0 0-.157-.7 1.183 1.183 0 0 0-.441-.486 1.234 1.234 0 0 0-.67-.178c-.284 0-.53.07-.737.212a1.39 1.39 0 0 0-.474.543c-.11.223-.166.463-.166.718v.41c0 .35.06.648.181.891.123.242.293.426.51.553.218.124.47.187.758.187.187 0 .356-.027.507-.079.153-.054.285-.135.396-.241.11-.109.196-.244.256-.405l.689.193a1.526 1.526 0 0 1-.366.616 1.78 1.78 0 0 1-.634.41 2.35 2.35 0 0 1-.848.146Zm3.716-2.886V14.5h-.712V9.864h.688v.724h.06a1.33 1.33 0 0 1 .495-.567c.222-.145.507-.218.858-.218.313 0 .588.065.823.193.236.127.42.32.55.58.13.258.196.584.196.978V14.5h-.712v-2.898c0-.364-.095-.648-.284-.85-.19-.206-.449-.309-.779-.309-.227 0-.43.05-.61.148a1.058 1.058 0 0 0-.42.432 1.43 1.43 0 0 0-.153.688Zm8.534 2.886c-.419 0-.786-.1-1.102-.3a2.018 2.018 0 0 1-.736-.835c-.175-.358-.263-.777-.263-1.256 0-.483.088-.905.263-1.265.177-.36.422-.64.736-.839.316-.2.683-.299 1.102-.299.418 0 .785.1 1.099.3.316.198.561.478.736.838.177.36.266.782.266 1.265 0 .479-.089.898-.266 1.256-.175.358-.42.636-.736.836a2.01 2.01 0 0 1-1.1.299Zm0-.64c.318 0 .58-.082.785-.245a1.44 1.44 0 0 0 .456-.643 2.47 2.47 0 0 0 .147-.863c0-.31-.049-.599-.147-.866a1.46 1.46 0 0 0-.456-.65c-.206-.164-.467-.247-.785-.247s-.58.083-.785.248a1.46 1.46 0 0 0-.456.649 2.487 2.487 0 0 0-.148.866c0 .31.05.598.148.863.099.266.25.48.456.643.205.163.467.245.785.245Zm3.9-2.246V14.5h-.712V9.864H72v.724h.06c.11-.235.274-.424.496-.567.221-.145.507-.218.857-.218.314 0 .589.065.824.193a1.3 1.3 0 0 1 .55.58c.13.258.196.584.196.978V14.5h-.713v-2.898c0-.364-.094-.648-.284-.85-.189-.206-.448-.309-.778-.309-.228 0-.43.05-.61.148a1.059 1.059 0 0 0-.42.432 1.43 1.43 0 0 0-.154.688ZM39.541 30.5V17.773h7.632v1.367h-6.09v4.3H46.6v1.367h-5.519V30.5h-1.54Zm13 .199c-.862 0-1.618-.205-2.269-.615-.646-.41-1.152-.984-1.516-1.722-.36-.737-.54-1.599-.54-2.585 0-.994.18-1.862.54-2.604.364-.741.87-1.317 1.516-1.727.65-.41 1.407-.616 2.269-.616.861 0 1.615.205 2.262.616.65.41 1.156.985 1.516 1.727.364.742.547 1.61.547 2.604 0 .986-.182 1.848-.547 2.585-.36.738-.866 1.312-1.516 1.722-.647.41-1.4.615-2.262.615Zm0-1.318c.654 0 1.193-.167 1.615-.503.423-.336.736-.777.939-1.324a5.063 5.063 0 0 0 .304-1.777 5.12 5.12 0 0 0-.304-1.784 3.006 3.006 0 0 0-.939-1.336c-.422-.34-.96-.51-1.615-.51s-1.194.17-1.616.51c-.423.34-.736.785-.939 1.336a5.12 5.12 0 0 0-.304 1.784c0 .638.101 1.23.304 1.777.203.547.516.988.939 1.324.422.336.96.503 1.616.503Zm12.33-2.784v-5.643h1.466V30.5H64.87v-1.616h-.1a3.13 3.13 0 0 1-1.043 1.237c-.473.335-1.07.503-1.79.503-.597 0-1.127-.13-1.591-.391-.464-.265-.829-.663-1.094-1.193-.265-.535-.398-1.208-.398-2.02v-6.066h1.467v5.966c0 .696.195 1.252.584 1.666.394.414.895.621 1.504.621a2.49 2.49 0 0 0 1.113-.28c.38-.186.7-.472.957-.857.26-.385.391-.876.391-1.473Zm5.369-1.84V30.5h-1.467v-9.546h1.417v1.492h.124a2.726 2.726 0 0 1 1.02-1.168c.455-.299 1.043-.448 1.764-.448.647 0 1.212.133 1.697.398.485.261.862.659 1.13 1.193.27.53.405 1.202.405 2.014V30.5h-1.467v-5.966c0-.75-.195-1.334-.584-1.752-.39-.423-.924-.634-1.603-.634a2.56 2.56 0 0 0-1.256.304c-.364.203-.652.5-.863.889-.212.39-.317.862-.317 1.417Zm12.671-3.803v1.243h-4.947v-1.242h4.947Zm-3.505-2.286h1.467v9.098c0 .414.06.725.18.932.124.203.282.34.472.41.195.066.4.1.615.1.162 0 .295-.009.398-.025l.249-.05.298 1.317a2.97 2.97 0 0 1-.416.112 3.06 3.06 0 0 1-.678.062c-.414 0-.82-.089-1.218-.267a2.42 2.42 0 0 1-.982-.814c-.257-.365-.385-.825-.385-1.38v-9.495Zm8.27 12.056a3.879 3.879 0 0 1-1.647-.342 2.826 2.826 0 0 1-1.174-1c-.29-.44-.435-.97-.435-1.591 0-.547.108-.99.323-1.33a2.28 2.28 0 0 1 .864-.808 4.54 4.54 0 0 1 1.193-.435c.44-.1.88-.178 1.324-.236a56.63 56.63 0 0 1 1.41-.168c.365-.042.63-.11.796-.205.17-.096.255-.261.255-.498v-.05c0-.612-.168-1.089-.504-1.428-.331-.34-.835-.51-1.51-.51-.7 0-1.249.153-1.647.46-.398.306-.677.634-.839.982l-1.392-.498c.249-.58.58-1.031.995-1.354a3.728 3.728 0 0 1 1.367-.684 5.676 5.676 0 0 1 1.466-.199c.307 0 .66.038 1.057.112.402.07.79.218 1.162.441.377.224.69.562.938 1.013.249.452.373 1.057.373 1.815V30.5h-1.466v-1.293h-.075c-.1.207-.265.43-.497.665-.232.236-.54.437-.926.603-.385.166-.856.249-1.41.249Zm.224-1.318c.58 0 1.069-.114 1.466-.341a2.327 2.327 0 0 0 1.219-2.02v-1.343c-.063.075-.2.143-.41.205a6.92 6.92 0 0 1-.721.156 32.684 32.684 0 0 1-1.405.186c-.381.05-.737.13-1.069.243a1.842 1.842 0 0 0-.795.49c-.2.216-.299.51-.299.883 0 .51.189.895.566 1.156.381.257.864.385 1.448.385Zm6.578 1.094v-9.546h1.467V30.5h-1.467Zm.746-11.136c-.286 0-.533-.098-.74-.292a.939.939 0 0 1-.304-.703c0-.273.101-.507.304-.702.207-.195.454-.292.74-.292s.53.097.733.292a.93.93 0 0 1 .31.702.93.93 0 0 1-.31.703 1.021 1.021 0 0 1-.733.292Zm4.623 5.394V30.5h-1.466v-9.546h1.417v1.492h.124a2.732 2.732 0 0 1 1.019-1.168c.456-.299 1.044-.448 1.765-.448.646 0 1.212.133 1.697.398.484.261.861.659 1.131 1.193.269.53.404 1.202.404 2.014V30.5h-1.467v-5.966c0-.75-.195-1.334-.584-1.752-.39-.423-.924-.634-1.603-.634a2.56 2.56 0 0 0-1.256.304 2.19 2.19 0 0 0-.864.889c-.21.39-.317.862-.317 1.417Z"/>
  <defs>
    <linearGradient id="a" x1="20.002" x2="20.002" y1="8" y2="18.654" gradientUnits="userSpaceOnUse">
      <stop stop-color="#FFC900"/>
      <stop offset=".6" stop-color="#FCAE17"/>
      <stop offset="1" stop-color="#FA9F23"/>
    </linearGradient>
  </defs>
</svg>
